icons/ct_fmt-txt-strikethrough.svg

<?xml version="1.0" encoding="UTF-8" standalone="no"?>
<svg
   xmlns:dc="http://purl.org/dc/elements/1.1/"
   xmlns:cc="http://creativecommons.org/ns#"
   xmlns:rdf="http://www.w3.org/1999/02/22-rdf-syntax-ns#"
   xmlns:svg="http://www.w3.org/2000/svg"
   xmlns="http://www.w3.org/2000/svg"
   xmlns:xlink="http://www.w3.org/1999/xlink"
   xmlns:sodipodi="http://sodipodi.sourceforge.net/DTD/sodipodi-0.dtd"
   xmlns:inkscape="http://www.inkscape.org/namespaces/inkscape"
   inkscape:version="1.0 (4035a4fb49, 2020-05-01)"
   sodipodi:docname="ct_fmt-txt-strikethrough.svg"
   version="1.1"
   width="16"
   height="16"
   id="svg3828">
  <sodipodi:namedview
     inkscape:current-layer="svg3828"
     inkscape:window-maximized="1"
     inkscape:window-y="22"
     inkscape:window-x="-8"
     inkscape:cy="14.086993"
     inkscape:cx="10.136171"
     inkscape:zoom="18.371263"
     showgrid="true"
     id="namedview41"
     inkscape:window-height="715"
     inkscape:window-width="1366"
     inkscape:pageshadow="2"
     inkscape:pageopacity="0"
     guidetolerance="10"
     gridtolerance="10"
     objecttolerance="10"
     borderopacity="1"
     bordercolor="#666666"
     pagecolor="#ffffff"
     inkscape:document-rotation="0"
     inkscape:pagecheckerboard="true"
     inkscape:snap-global="false"
     inkscape:showpageshadow="false">
    <inkscape:grid
       id="grid864"
       type="xygrid" />
  </sodipodi:namedview>
  <defs
     id="defs3830">
    <rect
       id="rect868"
       height="79.635208"
       width="68.869072"
       y="-30.931271"
       x="-43.235424" />
    <linearGradient
       id="linearGradient3977">
      <stop
         id="stop3979"
         style="stop-color:#ffffff;stop-opacity:1"
         offset="0" />
      <stop
         id="stop3981"
         style="stop-color:#ffffff;stop-opacity:0.23529412"
         offset="0" />
      <stop
         id="stop3983"
         style="stop-color:#ffffff;stop-opacity:0.15686275"
         offset="1" />
      <stop
         id="stop3985"
         style="stop-color:#ffffff;stop-opacity:0.39215687"
         offset="1" />
    </linearGradient>
    <linearGradient
       id="linearGradient3600-4">
      <stop
         id="stop3602-7"
         style="stop-color:#f4f4f4;stop-opacity:1"
         offset="0" />
      <stop
         id="stop3604-6"
         style="stop-color:#dbdbdb;stop-opacity:1"
         offset="1" />
    </linearGradient>
    <linearGradient
       id="linearGradient5060">
      <stop
         id="stop5062"
         style="stop-color:#000000;stop-opacity:1"
         offset="0" />
      <stop
         id="stop5064"
         style="stop-color:#000000;stop-opacity:0"
         offset="1" />
    </linearGradient>
    <linearGradient
       id="linearGradient5048">
      <stop
         id="stop5050"
         style="stop-color:#000000;stop-opacity:0"
         offset="0" />
      <stop
         id="stop5056"
         style="stop-color:#000000;stop-opacity:1"
         offset="0.5" />
      <stop
         id="stop5052"
         style="stop-color:#000000;stop-opacity:0"
         offset="1" />
    </linearGradient>
    <linearGradient
       x1="23.99999"
       y1="6.4736748"
       x2="23.99999"
       y2="41.526306"
       id="linearGradient3013"
       xlink:href="#linearGradient3977"
       gradientUnits="userSpaceOnUse"
       gradientTransform="matrix(0.40540511,0,0,0.51351351,2.2696871,-0.3243195)" />
    <linearGradient
       x1="25.132275"
       y1="0.98520643"
       x2="25.132275"
       y2="47.013336"
       id="linearGradient3016"
       xlink:href="#linearGradient3600-4"
       gradientUnits="userSpaceOnUse"
       gradientTransform="matrix(0.45714178,0,0,0.43456667,1.0285964,0.90372283)" />
    <radialGradient
       cx="605.71429"
       cy="486.64789"
       r="117.14286"
       fx="605.71429"
       fy="486.64789"
       id="radialGradient3021"
       xlink:href="#linearGradient5060"
       gradientUnits="userSpaceOnUse"
       gradientTransform="matrix(0.01204859,0,0,0.0082353,13.238793,18.980564)" />
    <radialGradient
       cx="605.71429"
       cy="486.64789"
       r="117.14286"
       fx="605.71429"
       fy="486.64789"
       id="radialGradient3024"
       xlink:href="#linearGradient5060"
       gradientUnits="userSpaceOnUse"
       gradientTransform="matrix(-0.01204859,0,0,0.0082353,10.761206,18.980564)" />
    <linearGradient
       x1="302.85715"
       y1="366.64789"
       x2="302.85715"
       y2="609.50507"
       id="linearGradient3027"
       xlink:href="#linearGradient5048"
       gradientUnits="userSpaceOnUse"
       gradientTransform="matrix(0.0352071,0,0,0.0082353,-0.724852,18.980547)" />
    <linearGradient
       gradientTransform="matrix(0.34782609,0,0,0.35094866,16.837638,3.7677746)"
       gradientUnits="userSpaceOnUse"
       y2="37.678539"
       x2="-17.375"
       y1="-6.125"
       x1="-17.375"
       id="linearGradient1063"
       xlink:href="#linearGradient1061" />
    <linearGradient
       id="linearGradient1061">
      <stop
         id="stop1057"
         offset="0"
         style="stop-color:#4d4d4d;stop-opacity:1" />
      <stop
         id="stop1059"
         offset="1"
         style="stop-color:#333333;stop-opacity:1" />
    </linearGradient>
    <linearGradient
       gradientTransform="matrix(0.34782609,0,0,0.34782609,1.0828828,1.6521738)"
       gradientUnits="userSpaceOnUse"
       y2="44.5"
       x2="44"
       y1="0"
       x1="44"
       id="linearGradient1071"
       xlink:href="#linearGradient1069" />
    <linearGradient
       id="linearGradient1069">
      <stop
         id="stop1065"
         offset="0"
         style="stop-color:#ed5353;stop-opacity:1" />
      <stop
         id="stop1067"
         offset="1"
         style="stop-color:#c6262e;stop-opacity:1" />
    </linearGradient>
  </defs>
  <metadata
     id="metadata3833">
    <rdf:RDF>
      <cc:Work
         rdf:about="">
        <dc:format>image/svg+xml</dc:format>
        <dc:type
           rdf:resource="http://purl.org/dc/dcmitype/StillImage" />
        <dc:title></dc:title>
      </cc:Work>
    </rdf:RDF>
  </metadata>
  <g
     aria-label="s"
     id="g867"
     style="font-style:normal;font-variant:normal;font-weight:normal;font-stretch:normal;font-size:40px;line-height:1.25;font-family:'Swis721 BlkCn BT';-inkscape-font-specification:'Swis721 BlkCn BT';letter-spacing:0px;word-spacing:0px;white-space:pre;shape-inside:url(#rect868);fill:none;fill-opacity:1;stroke:#ffffff;stroke-width:3.70049743"
     transform="matrix(0.27032347,0,0,0.27014444,21.492757,14.111409)" />
  <path
     style="font-style:normal;font-weight:normal;font-size:40px;line-height:1.25;font-family:sans-serif;letter-spacing:0px;word-spacing:0px;fill:none;fill-opacity:1;stroke:#ffffff;stroke-width:1;stroke-opacity:1"
     d="m 8.0883265,4.758259 c -0.931381,0 -1.726934,0.318564 -2.3866632,0.955694 C 5.0419363,6.3510823 4.5346666,7.1571897 4.1798559,8.1322757 4.0190809,8.5754957 3.8998868,9.0214863 3.8222718,9.4702473 3.7446551,9.9134687 3.7058476,10.359459 3.7058476,10.80822 c 0,0.443221 0.06375,0.839349 0.191264,1.188385 0.3548132,0.969546 1.0367157,1.454318 2.0457109,1.454318 1.0089944,0 1.8655334,-0.526324 2.569612,-1.578974 0.06653,0.504164 0.2439324,0.894751 0.532218,1.171765 0.2882834,0.271473 0.656954,0.407209 1.1060125,0.407209 0.454602,0 0.828818,-0.160668 1.122646,-0.482004 0.166317,-0.188367 0.368671,-0.601117 0.607061,-1.238246 -0.09979,0.04985 -0.22453,0.0748 -0.374217,0.0748 -0.465689,0 -0.698534,-0.19391 -0.698534,-0.581729 0,-0.20499 0.02494,-0.404438 0.07485,-0.598348 L 12.104903,4.8413633 H 9.6517132 L 9.4687642,5.747195 V 5.6225393 c 0,-0.2493126 -0.1081127,-0.454301 -0.3243197,-0.6149696 C 8.9282315,4.8413633 8.5761922,4.758259 8.0883265,4.758259 Z m 0.457374,1.0554183 c 0.3160037,0 0.5211277,0.083096 0.6153757,0.2493124 0.099788,0.1606666 0.1496867,0.2936336 0.1496867,0.3988983 l -0.814958,3.839399 c -0.1053337,0.465381 -0.2966007,0.833808 -0.5737967,1.105282 -0.2771963,0.265932 -0.5848847,0.398899 -0.923064,0.398899 -0.1829507,0 -0.335408,-0.06095 -0.4573737,-0.18283 -0.2106703,-0.19945 -0.3160053,-0.551255 -0.3160053,-1.055419 0,-0.260392 0.01386,-0.506934 0.041585,-0.7396247 0.1829493,-1.5235696 0.6347793,-2.6925643 1.3554903,-3.506982 0.299372,-0.337956 0.6070597,-0.506935 0.923064,-0.506935 z"
     id="path38" />
  <path
     id="text942"
     d="m 8.0883265,4.758259 c -0.931381,0 -1.726934,0.318564 -2.3866632,0.955694 C 5.0419363,6.3510823 4.5346666,7.1571897 4.1798559,8.1322757 4.0190809,8.5754957 3.8998868,9.0214863 3.8222718,9.4702473 3.7446551,9.9134687 3.7058476,10.359459 3.7058476,10.80822 c 0,0.443221 0.06375,0.839349 0.191264,1.188385 0.3548132,0.969546 1.0367157,1.454318 2.0457109,1.454318 1.0089944,0 1.8655334,-0.526324 2.569612,-1.578974 0.06653,0.504164 0.2439324,0.894751 0.532218,1.171765 0.2882834,0.271473 0.656954,0.407209 1.1060125,0.407209 0.454602,0 0.828818,-0.160668 1.122646,-0.482004 0.166317,-0.188367 0.368671,-0.601117 0.607061,-1.238246 -0.09979,0.04985 -0.22453,0.0748 -0.374217,0.0748 -0.465689,0 -0.698534,-0.19391 -0.698534,-0.581729 0,-0.20499 0.02494,-0.404438 0.07485,-0.598348 L 12.104903,4.8413633 H 9.6517132 L 9.4687642,5.747195 V 5.6225393 c 0,-0.2493126 -0.1081127,-0.454301 -0.3243197,-0.6149696 C 8.9282315,4.8413633 8.5761922,4.758259 8.0883265,4.758259 Z m 0.457374,1.0554183 c 0.3160037,0 0.5211277,0.083096 0.6153757,0.2493124 0.099788,0.1606666 0.1496867,0.2936336 0.1496867,0.3988983 l -0.814958,3.839399 c -0.1053337,0.465381 -0.2966007,0.833808 -0.5737967,1.105282 -0.2771963,0.265932 -0.5848847,0.398899 -0.923064,0.398899 -0.1829507,0 -0.335408,-0.06095 -0.4573737,-0.18283 -0.2106703,-0.19945 -0.3160053,-0.551255 -0.3160053,-1.055419 0,-0.260392 0.01386,-0.506934 0.041585,-0.7396247 0.1829493,-1.5235696 0.6347793,-2.6925643 1.3554903,-3.506982 0.299372,-0.337956 0.6070597,-0.506935 0.923064,-0.506935 z"
     style="font-style:normal;font-weight:normal;font-size:40px;line-height:1.25;font-family:sans-serif;letter-spacing:0px;word-spacing:0px;fill:#1a1a1a;fill-opacity:1;stroke:none;stroke-width:1.22369" />
  <path
     id="path51"
     style="fill:none;stroke:#ffffff;stroke-width:1.09073;stroke-linecap:round;stop-color:#000000"
     d="m 2.014015,8.9855433 11.961616,0.01361 V 10.019765 H 2.014015 Z"
     sodipodi:nodetypes="ccccc" />
  <g
     aria-label="s"
     id="g42"
     style="font-style:normal;font-variant:normal;font-weight:normal;font-stretch:normal;font-size:40px;line-height:1.25;font-family:'Swis721 BlkCn BT';-inkscape-font-specification:'Swis721 BlkCn BT';letter-spacing:0px;word-spacing:0px;white-space:pre;shape-inside:url(#rect868);fill:none;fill-opacity:1;stroke:#ffffff;stroke-width:4.34076;stroke-opacity:1"
     transform="matrix(0.23045098,0,0,0.23029835,20.82761,14.287063)" />
  <path
     sodipodi:nodetypes="ccccc"
     d="m 2.014015,8.9855433 11.961616,0.01361 V 10.019765 H 2.014015 Z"
     style="fill:#1a1a1a;stroke-width:1.09073;stroke-linecap:round;stop-color:#000000"
     id="rect44" />
</svg>

<?xml version="1.0" encoding="UTF-8" standalone="no"?>
<svg
   xmlns:dc="http://purl.org/dc/elements/1.1/"
   xmlns:cc="http://creativecommons.org/ns#"
   xmlns:rdf="http://www.w3.org/1999/02/22-rdf-syntax-ns#"
   xmlns:svg="http://www.w3.org/2000/svg"
   xmlns="http://www.w3.org/2000/svg"
   xmlns:sodipodi="http://sodipodi.sourceforge.net/DTD/sodipodi-0.dtd"
   xmlns:inkscape="http://www.inkscape.org/namespaces/inkscape"
   inkscape:version="0.92.5 (2060ec1f9f, 2020-04-08)"
   sodipodi:docname="ct_fmt-txt-strikethrough.svg"
   version="1.1"
   width="16"
   height="16"
   id="svg3828">
  <sodipodi:namedview
     inkscape:current-layer="svg3828"
     inkscape:window-maximized="1"
     inkscape:window-y="0"
     inkscape:window-x="0"
     inkscape:cy="5.3298708"
     inkscape:cx="-11.052791"
     inkscape:zoom="23.974747"
     showgrid="true"
     id="namedview41"
     inkscape:window-height="717"
     inkscape:window-width="1366"
     inkscape:pageshadow="2"
     inkscape:pageopacity="0"
     guidetolerance="10"
     gridtolerance="10"
     objecttolerance="10"
     borderopacity="1"
     bordercolor="#666666"
     pagecolor="#ffffff"
     inkscape:document-rotation="0"
     inkscape:pagecheckerboard="true"
     inkscape:snap-global="false"
     inkscape:showpageshadow="false">
    <inkscape:grid
       id="grid864"
       type="xygrid" />
  </sodipodi:namedview>
  <defs
     id="defs3830" />
  <metadata
     id="metadata3833">
    <rdf:RDF>
      <cc:Work
         rdf:about="">
        <dc:format>image/svg+xml</dc:format>
        <dc:type
           rdf:resource="http://purl.org/dc/dcmitype/StillImage" />
        <dc:title />
      </cc:Work>
    </rdf:RDF>
  </metadata>
  <g
     aria-label="s"
     id="g867"
     style="font-style:normal;font-variant:normal;font-weight:normal;font-stretch:normal;font-size:40px;line-height:1.25;font-family:'Swis721 BlkCn BT';-inkscape-font-specification:'Swis721 BlkCn BT';letter-spacing:0px;word-spacing:0px;white-space:pre;shape-inside:url(#rect868);fill:none;fill-opacity:1;stroke:#ffffff;stroke-width:3.70049743"
     transform="matrix(0.27032347,0,0,0.27014444,21.492757,14.111409)" />
  <path
     style="font-style:normal;font-weight:normal;font-size:40px;line-height:1.25;font-family:sans-serif;letter-spacing:0px;word-spacing:0px;fill:none;fill-opacity:1;stroke:#ffffff;stroke-width:2;opacity:0.7"
     d="M 8.0917969 4.7597656 C 7.1604159 4.7597656 6.3648071 5.0777138 5.7050781 5.7148438 C 5.0724913 6.3257622 4.5983352 7.1135149 4.2460938 8.0351562 L 6.6933594 8.0429688 C 6.9280202 7.3684658 7.2251317 6.776332 7.6269531 6.3222656 C 7.9263251 5.9843096 8.2347772 5.8164062 8.5507812 5.8164062 C 8.8667854 5.8164062 9.0717676 5.8982401 9.1660156 6.0644531 C 9.2658056 6.2251191 9.3144531 6.3576256 9.3144531 6.4628906 L 8.9785156 8.0488281 L 11.429688 8.0566406 L 12.109375 4.84375 L 9.65625 4.84375 L 9.4726562 5.7480469 L 9.4726562 5.625 C 9.4726562 5.375688 9.3646445 5.1704336 9.1484375 5.0097656 C 8.9322245 4.8435586 8.5796629 4.7597656 8.0917969 4.7597656 z M 1.0117188 8.9863281 L 1.0117188 10.019531 L 14.976562 10.019531 L 14.976562 9 L 1.0117188 8.9863281 z M 3.7441406 11.021484 C 3.7627612 11.372246 3.7955196 11.71099 3.9003906 11.998047 C 4.2552046 12.967593 4.9382706 13.453125 5.9472656 13.453125 C 6.9562606 13.453125 7.8135001 12.925697 8.5175781 11.873047 C 8.5841081 12.377211 8.7605431 12.767908 9.0488281 13.044922 C 9.3371121 13.316395 9.7052381 13.453125 10.154297 13.453125 C 10.608899 13.453125 10.983516 13.292039 11.277344 12.970703 C 11.443661 12.782336 11.646376 12.369551 11.884766 11.732422 C 11.784976 11.782272 11.659453 11.806641 11.509766 11.806641 C 11.044077 11.806641 10.8125 11.612428 10.8125 11.224609 C 10.8125 11.154933 10.832127 11.089881 10.837891 11.021484 L 8.1269531 11.021484 C 8.0509978 11.140227 8.0227813 11.313205 7.9257812 11.408203 C 7.6485853 11.674135 7.3420853 11.806641 7.0039062 11.806641 C 6.8209552 11.806641 6.6668879 11.74688 6.5449219 11.625 C 6.4245901 11.511077 6.4168343 11.234821 6.3652344 11.021484 L 3.7441406 11.021484 z "
     id="path46" />
  <path
     d="M 10.837891 11.021484 L 8.1269531 11.021484 C 8.0509978 11.140227 8.0227813 11.313205 7.9257812 11.408203 C 7.6485853 11.674135 7.3420853 11.806641 7.0039062 11.806641 C 6.8209552 11.806641 6.6668879 11.74688 6.5449219 11.625 C 6.4245901 11.511077 6.4168343 11.234821 6.3652344 11.021484 L 3.7441406 11.021484 C 3.7627612 11.372246 3.7955196 11.71099 3.9003906 11.998047 C 4.2552046 12.967593 4.9382706 13.453125 5.9472656 13.453125 C 6.9562606 13.453125 7.8135001 12.925697 8.5175781 11.873047 C 8.5841081 12.377211 8.7605431 12.767908 9.0488281 13.044922 C 9.3371121 13.316395 9.7052382 13.453125 10.154297 13.453125 C 10.608899 13.453125 10.983516 13.292039 11.277344 12.970703 C 11.443661 12.782336 11.646376 12.369551 11.884766 11.732422 C 11.784976 11.782272 11.659453 11.806641 11.509766 11.806641 C 11.044077 11.806641 10.8125 11.612428 10.8125 11.224609 C 10.8125 11.154933 10.832127 11.089881 10.837891 11.021484 z "
     style="font-style:normal;font-weight:normal;font-size:40px;line-height:1.25;font-family:sans-serif;letter-spacing:0px;word-spacing:0px;fill:#1a1a1a;fill-opacity:1;stroke:none;stroke-width:0.1"
     id="path905" />
  <path
     d="M 8.0917969 4.7597656 C 7.1604159 4.7597656 6.3648071 5.0777138 5.7050781 5.7148438 C 5.0724913 6.3257622 4.5983353 7.1135148 4.2460938 8.0351562 L 6.6933594 8.0429688 C 6.9280202 7.368466 7.2251317 6.776332 7.6269531 6.3222656 C 7.9263251 5.9843096 8.2347772 5.8164062 8.5507812 5.8164062 C 8.8667852 5.8164062 9.0717676 5.8982401 9.1660156 6.0644531 C 9.2658056 6.2251191 9.3144531 6.3576256 9.3144531 6.4628906 L 8.9785156 8.0488281 L 11.429688 8.0566406 L 12.109375 4.84375 L 9.65625 4.84375 L 9.4726562 5.7480469 L 9.4726562 5.625 C 9.4726562 5.375688 9.3646445 5.1704336 9.1484375 5.0097656 C 8.9322245 4.8435586 8.5796629 4.7597656 8.0917969 4.7597656 z "
     style="font-style:normal;font-weight:normal;font-size:40px;line-height:1.25;font-family:sans-serif;letter-spacing:0px;word-spacing:0px;fill:#1a1a1a;fill-opacity:1;stroke:none;stroke-width:0.1"
     id="path901" />
  <g
     aria-label="s"
     id="g42"
     style="font-style:normal;font-variant:normal;font-weight:normal;font-stretch:normal;font-size:40px;line-height:1.25;font-family:'Swis721 BlkCn BT';-inkscape-font-specification:'Swis721 BlkCn BT';letter-spacing:0px;word-spacing:0px;white-space:pre;shape-inside:url(#rect868);fill:none;fill-opacity:1;stroke:#ffffff;stroke-width:4.34076;stroke-opacity:1"
     transform="matrix(0.23045098,0,0,0.23029835,20.82761,14.287063)" />
  <path
     id="path869"
     style="fill:#1a1a1a;fill-opacity:1;stroke-width:0.1;stroke-linecap:round;stop-color:#000000;stroke:none"
     d="m 1.0123189,8.985543 13.9650081,0.01361 v 1.020612 H 1.0123189 Z"
     sodipodi:nodetypes="ccccc" />
</svg>
